public/badges/rss.svg

<?xml version="1.0" encoding="UTF-8"?>
<svg width="160px" height="40px" viewBox="0 0 160 40" version="1.1" xmlns="http://www.w3.org/2000/svg" xmlns:xlink="http://www.w3.org/1999/xlink">
    <title>RSS Feed</title>
    <g id="Page-1" stroke="none" stroke-width="1" fill="none" fill-rule="evenodd">
        <g id="Listen-On" transform="translate(-1049.000000, -697.000000)">
            <g id="RSS-Feed" transform="translate(1049.000000, 697.000000)">
                <rect id="Rectangle" stroke="#000000" fill="#FFFFFF" x="0.5" y="0.5" width="159" height="39" rx="7"></rect>
                <path d="M44.7890625,31 L44.7890625,26.6640625 L47.1953125,26.6640625 L49.4921875,31 L51.5078125,31 L48.984375,26.390625 C50.359375,25.9296875 51.171875,24.6953125 51.171875,23.171875 C51.171875,21.0703125 49.7265625,19.7265625 47.40625,19.7265625 L43.0390625,19.7265625 L43.0390625,31 L44.7890625,31 Z M47.2421875,25.25 L44.7890625,25.25 L44.7890625,21.1953125 L47.1953125,21.1953125 C48.546875,21.1953125 49.3671875,21.9609375 49.3671875,23.21875 C49.3671875,24.5078125 48.59375,25.25 47.2421875,25.25 Z M56.703125,31.1875 C59.328125,31.1875 61,29.8515625 61,27.7265625 C61,26.0859375 60.03125,25.140625 57.671875,24.640625 L56.4375,24.3828125 C54.9765625,24.0703125 54.3984375,23.5234375 54.3984375,22.703125 C54.3984375,21.671875 55.3671875,21.03125 56.6875,21.03125 C58.0546875,21.03125 58.984375,21.7265625 59.09375,22.859375 L60.7890625,22.859375 C60.734375,20.890625 59.1015625,19.5390625 56.7109375,19.5390625 C54.3125,19.5390625 52.6171875,20.8671875 52.6171875,22.796875 C52.6171875,24.421875 53.640625,25.46875 55.8984375,25.9453125 L57.125,26.203125 C58.6328125,26.53125 59.2265625,27.078125 59.2265625,27.953125 C59.2265625,28.9609375 58.203125,29.6953125 56.7734375,29.6953125 C55.2734375,29.6953125 54.2109375,29.0234375 54.0546875,27.90625 L52.3515625,27.90625 C52.4609375,29.9140625 54.15625,31.1875 56.703125,31.1875 Z M66.4140625,31.1875 C69.0390625,31.1875 70.7109375,29.8515625 70.7109375,27.7265625 C70.7109375,26.0859375 69.7421875,25.140625 67.3828125,24.640625 L66.1484375,24.3828125 C64.6875,24.0703125 64.109375,23.5234375 64.109375,22.703125 C64.109375,21.671875 65.078125,21.03125 66.3984375,21.03125 C67.765625,21.03125 68.6953125,21.7265625 68.8046875,22.859375 L70.5,22.859375 C70.4453125,20.890625 68.8125,19.5390625 66.421875,19.5390625 C64.0234375,19.5390625 62.328125,20.8671875 62.328125,22.796875 C62.328125,24.421875 63.3515625,25.46875 65.609375,25.9453125 L66.8359375,26.203125 C68.34375,26.53125 68.9375,27.078125 68.9375,27.953125 C68.9375,28.9609375 67.9140625,29.6953125 66.484375,29.6953125 C64.984375,29.6953125 63.921875,29.0234375 63.765625,27.90625 L62.0625,27.90625 C62.171875,29.9140625 63.8671875,31.1875 66.4140625,31.1875 Z M77.2734375,31 L77.2734375,26.28125 L82.1171875,26.28125 L82.1171875,24.8046875 L77.2734375,24.8046875 L77.2734375,21.234375 L82.5625,21.234375 L82.5625,19.7265625 L75.5234375,19.7265625 L75.5234375,31 L77.2734375,31 Z M87.390625,31.15625 C89.2734375,31.15625 90.6953125,30.0859375 90.9296875,28.5859375 L89.328125,28.5859375 C89.1015625,29.3046875 88.390625,29.7890625 87.4296875,29.7890625 C86.078125,29.7890625 85.21875,28.84375 85.21875,27.4140625 L85.21875,27.3125 L91.0234375,27.3125 L91.0234375,26.734375 C91.0234375,24.2421875 89.6015625,22.6328125 87.3203125,22.6328125 C85,22.6328125 83.515625,24.3515625 83.515625,26.9296875 C83.515625,29.5234375 84.9765625,31.15625 87.390625,31.15625 Z M89.3359375,26.1328125 L85.2265625,26.1328125 C85.3125,24.890625 86.140625,23.9921875 87.3203125,23.9921875 C88.5,23.9921875 89.296875,24.875 89.3359375,26.1328125 Z M95.8359375,31.15625 C97.71875,31.15625 99.140625,30.0859375 99.375,28.5859375 L97.7734375,28.5859375 C97.546875,29.3046875 96.8359375,29.7890625 95.875,29.7890625 C94.5234375,29.7890625 93.6640625,28.84375 93.6640625,27.4140625 L93.6640625,27.3125 L99.46875,27.3125 L99.46875,26.734375 C99.46875,24.2421875 98.046875,22.6328125 95.765625,22.6328125 C93.4453125,22.6328125 91.9609375,24.3515625 91.9609375,26.9296875 C91.9609375,29.5234375 93.421875,31.15625 95.8359375,31.15625 Z M97.78125,26.1328125 L93.671875,26.1328125 C93.7578125,24.890625 94.5859375,23.9921875 95.765625,23.9921875 C96.9453125,23.9921875 97.7421875,24.875 97.78125,26.1328125 Z M103.859375,31.140625 C105.054688,31.140625 105.992188,30.5390625 106.476562,29.6015625 L106.507812,29.6015625 L106.507812,31 L108.148438,31 L108.148438,19.7265625 L106.453125,19.7265625 L106.453125,24.1484375 L106.421875,24.1484375 C105.960938,23.2421875 105.023438,22.6484375 103.84375,22.6484375 C101.78125,22.6484375 100.40625,24.296875 100.40625,26.890625 C100.40625,29.484375 101.78125,31.140625 103.859375,31.140625 Z M104.304688,29.7109375 C102.96875,29.7109375 102.132812,28.625 102.132812,26.890625 C102.132812,25.1640625 102.96875,24.0703125 104.304688,24.0703125 C105.601562,24.0703125 106.46875,25.1875 106.46875,26.890625 C106.46875,28.609375 105.601562,29.7109375 104.304688,29.7109375 Z" id="RSSFeed" fill="#000000" fill-rule="nonzero"></path>
                <path d="M43,11.9956585 C43,10.1895803 44.3778807,9 46.0757853,9 C47.1869794,9 47.9248123,9.49493488 48.4226273,10.146165 L47.7025735,10.5542692 C47.3647705,10.1114327 46.7691704,9.77279305 46.0757853,9.77279305 C44.8401375,9.77279305 43.9156239,10.6931983 43.9156239,11.9956585 C43.9156239,13.2894356 44.8401375,14.2272069 46.0757853,14.2272069 C46.7336122,14.2272069 47.2936541,13.9146165 47.5781197,13.6541245 L47.5781197,12.6121563 L45.6757554,12.6121563 L45.6757554,11.8480463 L48.467075,11.8480463 L48.467075,13.975398 C47.8981437,14.5918958 47.0803048,15 46.0757853,15 C44.3778807,15 43,13.8017366 43,11.9956585 Z M49.2786389,12.7858177 C49.2786389,11.5701881 50.1764838,10.5890014 51.4299107,10.5890014 C52.7188959,10.5890014 53.5189557,11.5701881 53.5189557,12.8552822 L53.5189557,13.0463097 L50.1231465,13.0463097 C50.1853733,13.7583213 50.7187465,14.3487699 51.5810331,14.3487699 C52.0344003,14.3487699 52.5322153,14.1751085 52.8522392,13.853835 L53.2256004,14.366136 C52.7989019,14.7742402 52.1944123,14.9913169 51.5010272,14.9913169 C50.2209315,14.9913169 49.2786389,14.105644 49.2786389,12.7858177 Z M51.4299107,11.2315485 C50.5676241,11.2315485 50.1587047,11.9088278 50.1142569,12.4819103 L52.736675,12.4819103 C52.7188959,11.9261939 52.3366451,11.2315485 51.4299107,11.2315485 Z M55.6639525,14.9913169 C54.9883465,14.9913169 54.6416539,14.617945 54.6416539,13.9580318 L54.6416539,11.3791606 L53.9304897,11.3791606 L53.9304897,10.6931983 L54.6416539,10.6931983 L54.6416539,9.54703329 L55.4417137,9.54703329 L55.4417137,10.6931983 L56.3128899,10.6931983 L56.3128899,11.3791606 L55.4417137,11.3791606 L55.4417137,13.7843705 C55.4417137,14.0795948 55.5839465,14.2966715 55.8595227,14.2966715 C56.0462033,14.2966715 56.2151048,14.2185239 56.2951107,14.1316932 L56.4995705,14.7221418 C56.330669,14.878437 56.0817615,14.9913169 55.6639525,14.9913169 Z M60.5939939,14.9913169 C59.9183879,14.9913169 59.5716954,14.617945 59.5716954,13.9580318 L59.5716954,11.3791606 L58.8605311,11.3791606 L58.8605311,10.6931983 L59.5716954,10.6931983 L59.5716954,9.54703329 L60.3717551,9.54703329 L60.3717551,10.6931983 L61.2429313,10.6931983 L61.2429313,11.3791606 L60.3717551,11.3791606 L60.3717551,13.7843705 C60.3717551,14.0795948 60.513988,14.2966715 60.7895641,14.2966715 C60.9762447,14.2966715 61.1451462,14.2185239 61.2251522,14.1316932 L61.4296119,14.7221418 C61.2607104,14.878437 61.0118029,14.9913169 60.5939939,14.9913169 Z M64.9880477,14.8871201 L64.9880477,12.186686 C64.9880477,11.4920405 64.623576,11.2836469 64.0724237,11.2836469 C63.5746087,11.2836469 63.1212416,11.5788712 62.8901132,11.8914616 L62.8901132,14.8871201 L62.0900534,14.8871201 L62.0900534,9.09551375 L62.8901132,9.09551375 L62.8901132,11.2836469 C63.1745789,10.9450072 63.7523998,10.5890014 64.4102267,10.5890014 C65.3258507,10.5890014 65.7881074,11.040521 65.7881074,11.9261939 L65.7881074,14.8871201 L64.9880477,14.8871201 Z M66.7596833,12.7858177 C66.7596833,11.5701881 67.6575281,10.5890014 68.9109551,10.5890014 C70.1999402,10.5890014 71,11.5701881 71,12.8552822 L71,13.0463097 L67.6041908,13.0463097 C67.6664177,13.7583213 68.1997908,14.3487699 69.0620775,14.3487699 C69.5154447,14.3487699 70.0132596,14.1751085 70.3332835,13.853835 L70.7066448,14.366136 C70.2799462,14.7742402 69.6754566,14.9913169 68.9820715,14.9913169 C67.7019759,14.9913169 66.7596833,14.105644 66.7596833,12.7858177 Z M68.9109551,11.2315485 C68.0486684,11.2315485 67.639749,11.9088278 67.5953012,12.4819103 L70.2177193,12.4819103 C70.1999402,11.9261939 69.8176895,11.2315485 68.9109551,11.2315485 Z" id="Getthe" fill="#000000" fill-rule="nonzero"></path>
                <path d="M10,15.6538462 C19.010582,15.6538462 26.3461538,22.9859939 26.3461538,31.9999242 L26.3461538,31.9999242 L21.5779601,32 C21.5779601,28.8991067 20.3719589,25.9802265 18.1860059,23.7959937 C15.9977781,21.6071368 13.0911363,20.3989217 10,20.3989217 L10,20.3989217 Z M13.3631411,25.2692308 C15.225974,25.2692308 16.7307692,26.7876898 16.7307692,28.6381857 C16.7306919,30.4985386 15.2258967,32 13.3631411,32 C11.5075803,32 10,30.498461 10,28.6381857 C10,26.7876898 11.5075803,25.2692308 13.3631411,25.2692308 Z M10,7 C23.7837585,7 35,18.2189065 35,32 L35,32 L30.1921752,31.9998469 C30.1921752,20.8598605 21.1310124,11.7936901 10,11.7936901 L10,11.7936901 Z" id="Path" fill="#F5A623"></path>
            </g>
        </g>
    </g>
</svg>

<svg xmlns="http://www.w3.org/2000/svg" width="160" height="40" viewBox="0 0 160 40"><title>RSS Feed</title><g fill="none" fill-rule="evenodd"><rect width="159" height="39" x=".5" y=".5" fill="#fff" stroke="#000" rx="7"/><path fill="#000" fill-rule="nonzero" d="M44.79 31v-4.336h2.405L49.492 31h2.016l-2.524-4.61c1.375-.46 2.188-1.695 2.188-3.218 0-2.102-1.445-3.445-3.766-3.445H43.04V31zm2.452-5.75H44.79v-4.055h2.406c1.352 0 2.172.766 2.172 2.024 0 1.289-.773 2.031-2.125 2.031m9.461 5.938c2.625 0 4.297-1.336 4.297-3.461 0-1.641-.969-2.586-3.328-3.086l-1.234-.258c-1.461-.313-2.04-.86-2.04-1.68 0-1.031.97-1.672 2.29-1.672 1.367 0 2.296.696 2.406 1.828h1.695c-.055-1.968-1.687-3.32-4.078-3.32-2.398 0-4.094 1.328-4.094 3.258 0 1.625 1.024 2.672 3.281 3.148l1.227.258c1.508.328 2.102.875 2.102 1.75 0 1.008-1.024 1.742-2.454 1.742-1.5 0-2.562-.672-2.718-1.789h-1.703c.109 2.008 1.804 3.282 4.351 3.282m9.711 0c2.625 0 4.297-1.336 4.297-3.461 0-1.641-.969-2.586-3.328-3.086l-1.235-.258c-1.46-.313-2.039-.86-2.039-1.68 0-1.031.97-1.672 2.29-1.672 1.367 0 2.296.696 2.406 1.828H70.5c-.055-1.968-1.687-3.32-4.078-3.32-2.399 0-4.094 1.328-4.094 3.258 0 1.625 1.024 2.672 3.281 3.148l1.227.258c1.508.328 2.102.875 2.102 1.75 0 1.008-1.024 1.742-2.454 1.742-1.5 0-2.562-.672-2.718-1.789h-1.703c.109 2.008 1.804 3.282 4.351 3.282M77.274 31v-4.719h4.843v-1.476h-4.844v-3.57h5.29v-1.508h-7.04V31zm10.117.156c1.882 0 3.304-1.07 3.539-2.57h-1.602c-.226.719-.937 1.203-1.898 1.203-1.352 0-2.211-.945-2.211-2.375v-.102h5.804v-.578c0-2.492-1.421-4.101-3.703-4.101-2.32 0-3.804 1.719-3.804 4.297 0 2.593 1.46 4.226 3.875 4.226m1.945-5.023h-4.11c.087-1.242.915-2.14 2.094-2.14 1.18 0 1.977.882 2.016 2.14m6.5 5.023c1.883 0 3.305-1.07 3.539-2.57h-1.602c-.226.719-.937 1.203-1.898 1.203-1.352 0-2.21-.945-2.21-2.375v-.102h5.804v-.578c0-2.492-1.422-4.101-3.703-4.101-2.32 0-3.805 1.719-3.805 4.297 0 2.593 1.46 4.226 3.875 4.226m1.945-5.023h-4.11c.087-1.242.915-2.14 2.095-2.14s1.976.882 2.015 2.14m6.078 5.008c1.196 0 2.133-.602 2.618-1.54h.03V31h1.641V19.727h-1.695v4.421h-.031c-.461-.906-1.399-1.5-2.578-1.5-2.063 0-3.438 1.649-3.438 4.243 0 2.593 1.375 4.25 3.453 4.25m.446-1.43c-1.336 0-2.172-1.086-2.172-2.82 0-1.727.836-2.82 2.172-2.82 1.297 0 2.164 1.116 2.164 2.82 0 1.718-.867 2.82-2.164 2.82M43 11.996C43 10.19 44.378 9 46.076 9c1.111 0 1.849.495 2.347 1.146l-.72.408a2.06 2.06 0 0 0-1.627-.781c-1.236 0-2.16.92-2.16 2.223 0 1.293.924 2.231 2.16 2.231a2.33 2.33 0 0 0 1.502-.573v-1.042h-1.902v-.764h2.791v2.127C47.898 14.592 47.08 15 46.076 15 44.378 15 43 13.802 43 11.996m6.279.79c0-1.216.897-2.197 2.15-2.197 1.29 0 2.09.981 2.09 2.266v.191h-3.396c.062.712.596 1.303 1.458 1.303.453 0 .951-.174 1.271-.495l.374.512c-.427.408-1.032.625-1.725.625-1.28 0-2.222-.885-2.222-2.205m2.15-1.554c-.861 0-1.27.677-1.315 1.25h2.623c-.018-.556-.4-1.25-1.307-1.25m4.235 3.76c-.676 0-1.022-.374-1.022-1.034v-2.579h-.712v-.686h.712V9.547h.8v1.146h.87v.686h-.87v2.405c0 .296.142.513.418.513a.62.62 0 0 0 .435-.165l.205.59c-.17.156-.418.27-.836.27m4.93 0c-.676 0-1.022-.374-1.022-1.034v-2.579h-.711v-.686h.71V9.547h.8v1.146h.872v.686h-.871v2.405c0 .296.142.513.418.513a.62.62 0 0 0 .435-.165l.205.59c-.17.156-.418.27-.836.27m4.394-.105v-2.7c0-.695-.364-.903-.916-.903-.497 0-.95.295-1.182.607v2.996h-.8V9.096h.8v2.188a2.08 2.08 0 0 1 1.52-.695c.916 0 1.378.452 1.378 1.337v2.961zm1.772-2.101c0-1.216.898-2.197 2.151-2.197 1.289 0 2.089.981 2.089 2.266v.191h-3.396c.062.712.596 1.303 1.458 1.303.453 0 .951-.174 1.271-.495l.374.512c-.427.408-1.032.625-1.725.625-1.28 0-2.222-.885-2.222-2.205m2.151-1.554c-.862 0-1.271.677-1.316 1.25h2.623c-.018-.556-.4-1.25-1.307-1.25"/><path fill="#f5a623" d="M10 15.654c9.01 0 16.346 7.332 16.346 16.346h-4.768c0-3.1-1.206-6.02-3.392-8.204A11.5 11.5 0 0 0 10 20.399Zm3.363 9.615a3.373 3.373 0 0 1 3.368 3.37A3.36 3.36 0 0 1 13.363 32 3.36 3.36 0 0 1 10 28.638a3.374 3.374 0 0 1 3.363-3.369M10 7c13.784 0 25 11.219 25 25h-4.808c0-11.14-9.061-20.206-20.192-20.206Z"/></g></svg>
